X: 10023
T: DEBBIE'S JIG
C: Bob McQuillen 8 Apr 93
B: Bob's Note Book 10 #23
%R: jig
Z: 2021 John Chambers <jc:trillian.mit.edu>
M: 6/8
L: 1/8
K: G
d2c \
| BdB AGA | B2G D2G | FGA AGA | BcB A2d |\
| BcB AGA | B2c dBG | EcB AGF | G3 :|
|: B2d \
| g2g dBd | geg d2B | cBc ABc | e2d B2d |\
| gfg dBd | cde dBG | FGA DEF | G3 :|
%%begintext align
%% Debbie Cloughley
%% is such an enthusiastic dancer here in
%% the Monadnock Region that I thought she
%% should have her own tune to dance to.
%% I hope it fits your feet, Debbie!
%%endtext

%%sep 1 1 500

%%sep 1 1 500

